!!!SOCIAL_FUNCTION:	love songs
!!!PDT:	1913
!!!OTL: No_108_He_Is_Gone.krn
!!!REG: Great_Lakes
!!!LANG: Non-Tone
!!!LING_GROUP: Algonquin
**kern
*staff1
=1-
*clefF4
*k[b-e-]
*M2/4
[2d\
=2
4d\]
8c\L
8B-\J
=3||
*M3/4
4.d\
8d\
4B-\
=4
[2.G\
=5||
*M2/4
2G\]
=6
[2d\
=7
4.d\]
16c\LL
16B-\JJ
=8
[2c\
=9
8.c\L]
16B-\Jk
4F\
=10
[2G\
=11
4G\]
4F\
=12||
*M3/4
[2.D\
=13||
*M2/4
2D\]
=14
[2d\
=15
4d\]
4B-\
=16||
*M3/4
2d\
4B-\
=17
[2.G\
=18||
*M2/4
2G\]
=19
4B-\
4d\
=20
[2c\
=21
4c\]
4F\
=22||
*M3/4
2G\
4F\
=23
[2.D\
=24||
*M2/4
2D\]
=25
[2G\
=26
4G\]
8F\L
8F\J
=27||
*M3/4
4.G\
8G\
4F\
=28
[2.D\
=29||
*M2/4
2D\]
==
*-
